assets/img/svg/3rd-party/session.svg

<?xml version="1.0" encoding="UTF-8"?>
<svg enable-background="new 0 0 303.1 336.3" version="1.1" viewBox="0 0 303.1 336.3" xml:space="preserve" xmlns="http://www.w3.org/2000/svg">
<style type="text/css">
	.st0{fill:#00F782;}
</style>
<path class="st0" d="m255.7 170.9-63.5-35.2h43c37.4 0 67.8-30.4 67.8-67.8s-30.4-67.9-67.8-67.9h-150.2c-46.9 0-85 38.1-85 85 0 33.4 18.2 64.2 47.4 80.4l63.5 35.2h-43c-37.5 0-67.9 30.5-67.9 67.9s30.4 67.8 67.8 67.8h150.2c46.9 0 85-38.1 85-85 0.1-33.4-18.1-64.2-47.3-80.4zm-198.1-23.8c-22.1-12.3-36-35.3-36.6-60.4-0.8-36.1 29.5-65.7 65.6-65.7h147.3c25.2 0 46.9 19.3 48.1 44.5 1.3 26.9-20.2 49.2-46.8 49.2h-84.8c-5.2 0-9.4 4.2-9.4 9.4v69.2l-83.4-46.2zm158.9 168.2h-147.3c-25.2 0-46.9-19.3-48.1-44.5-1.3-26.9 20.2-49.2 46.8-49.2h84.8c5.2 0 9.4-4.2 9.4-9.4v-69.2l83.4 46.2c22.1 12.2 35.9 35.3 36.5 60.4 0.9 36.1-29.4 65.7-65.5 65.7z"/>
</svg>

<?xml version="1.0" encoding="utf-8"?>
<!-- Generator: Adobe Illustrator 25.2.1, SVG Export Plug-In . SVG Version: 6.00 Build 0)  -->
<svg version="1.1" id="Layer_1" xmlns="http://www.w3.org/2000/svg" xmlns:xlink="http://www.w3.org/1999/xlink" x="0px" y="0px"
	 viewBox="0 0 303.1 336.3" style="enable-background:new 0 0 303.1 336.3;" xml:space="preserve">
<style type="text/css">
	.st0{fill:#00F782;}
</style>
<path class="st0" d="M255.7,170.9l-63.5-35.2h43c37.4,0,67.8-30.4,67.8-67.8S272.6,0,235.2,0H85C38.1,0,0,38.1,0,85
	c0,33.4,18.2,64.2,47.4,80.4l63.5,35.2h-43C30.4,200.6,0,231.1,0,268.5s30.4,67.8,67.8,67.8h150.2c46.9,0,85-38.1,85-85
	C303.1,217.9,284.9,187.1,255.7,170.9z M57.6,147.1C35.5,134.8,21.6,111.8,21,86.7C20.2,50.6,50.5,21,86.6,21h147.3
	c25.2,0,46.9,19.3,48.1,44.5c1.3,26.9-20.2,49.2-46.8,49.2c0,0-61,0-84.8,0c-5.2,0-9.4,4.2-9.4,9.4l0,69.2L57.6,147.1z M216.5,315.3
	H69.2c-25.2,0-46.9-19.3-48.1-44.5c-1.3-26.9,20.2-49.2,46.8-49.2h84.8c5.2,0,9.4-4.2,9.4-9.4V143l83.4,46.2
	c22.1,12.2,35.9,35.3,36.5,60.4C282.9,285.7,252.6,315.3,216.5,315.3z"/>
</svg>
